src/website/content/images/organisations/evilfactorylabs.svg

<svg height="56" viewBox="0 0 349 56" width="349" xmlns="http://www.w3.org/2000/svg"><g fill-rule="evenodd" transform="translate(0 -2)"><text font-family="Helvetica" font-size="45"><tspan x="66" y="44">evilfactorylabs</tspan></text><path d="m50.4705882 42.2422145v-.8913494-8.4355248-4.4955018-13.7190311l-11.4248366 5.6452134-10.5098039 5.1801614c-.0784314-.5167243-.3006536-.9817762-.6405229-1.3564013l10.4705883-5.1672434 9.7124183-4.7926182h-19.6601307c.0915032-.2583622.1307189-.5296425.1307189-.8138409 0-.245444-.0261438-.47797-.0915033-.6975778h19.8562092l-9.9477124-4.90888122-12.379085-6.11026529-12.3660131 6.11026529-9.96078428 4.90888122h19.88235298c-.0653595.2196078-.1045752.4521338-.1045752.6975778 0 .2841984.0522876.5554787.130719.8138409h-19.66013077l9.71241827 4.7926182 10.4705883 5.1672434c-.3267974.3746251-.5620915.839677-.627451 1.3693194l-10.5228758-5.1930795-11.42483663-5.6452134v13.7190311 4.4955018 8.4226066.9042676l.74509804.3617071 2.94117647 1.4468281 1.29411765.6459054 7.12418297 3.5137255 11.6078432 5.7356402v-25.6682815c.248366.0645906.496732.116263.7712418.116263.2614379 0 .5228758-.0516724.7581699-.116263v25.6682815l11.6078432-5.7356402 10-4.9347174 1.3594771-.6717416zm-23.7124183-26.4433679v7.6604383c-.2352941-.0775087-.496732-.116263-.7581699-.116263-.2745098 0-.5228758.0387543-.7712418.116263v-7.6604383c.248366.0775086.496732.116263.7712418.116263.2614379 0 .5228758-.0387544.7581699-.116263zm-.4313725-15.63091119 12.7189542 6.27820069 6.0392157 2.98408305 1.3594771.67174165 5.2679739 2.5965398.2875817.1420992v1.1109573 12.1301038 3.6687428 1.8214533 9.9211072 1.666436l-.2352941.116263-1.2941177.6459054-2.1045751 1.0334487-9.3202615 4.5988466-12.7058823 6.2782007-.3398693.1679354-.3398693-.1679354-12.7189542-6.2782007-6.44444447-3.1778547-1.89542484-.9430219-.45751634-.2196078-2.62745098-1.2918109-1.51633987-.7621684v-.95594-12.1946943-6.7044983-1.9377163-7.4149942-1.1238754l.2745098-.1291811 5.1633987-2.5577855 1.35947712-.67174163 6.14379088-3.02283737 12.7058823-6.27820069.3398693-.16793541zm1.620915 14.85582469 6.9411765 10.7607843 6.9542484 10.7607843c-.509804.1291811-.9542484.4133795-1.2810458.8009227l-6.9542484-10.7607843-6.9411764-10.7607843c.5098039-.1291811.9542483-.4133795 1.2810457-.8009227zm12.1176471 24.7123414h-14.0653595-14.0784314c.0784314-.2454441.1176471-.4908881.1176471-.7621684 0-.2583622-.0392157-.5167243-.1176471-.7492503h14.0784314 14.0653595c-.0784314.232526-.1176471.4908881-.1176471.7492503 0 .2712803.0392157.5167243.1176471.7621684zm-29.9084968-3.1907728 6.9411765-10.7607843 6.9411765-10.7607843c.3398693.3875432.7843137.6717416 1.2810457.8009227l-6.9411764 10.7607843-6.9411765 10.7607843c-.3267974-.3875432-.7712418-.6717416-1.2810458-.8009227zm-.67973852-.6717416c.87581702 0 1.66013072.3487889 2.23529412.9042676.5620915.5683967.9150327 1.3434832.9150327 2.1960784 0 .8655133-.3529412 1.6405998-.9150327 2.1960784v.0129181c-.5751634.5554787-1.3594771.9042676-2.23529412.9042676-.8627451 0-1.64705882-.3487889-2.22222222-.9042676v-.0129181c-.5751634-.5554786-.92810457-1.3305651-.92810457-2.1960784 0-.8525952.35294117-1.6276817.92810457-2.1960784.5751634-.5554787 1.35947712-.9042676 2.22222222-.9042676zm1.39869282 1.7310265c-.3529412-.3487889-.8496732-.5683968-1.39869282-.5683968-.53594771 0-1.03267974.2196079-1.38562091.5683968-.35294118.3487889-.5751634.8396771-.5751634 1.3693195 0 .5425606.22222222 1.0205306.5751634 1.3822376.35294117.3487889.8496732.5554787 1.38562091.5554787.54901962 0 1.04575162-.2066898 1.39869282-.5554787.3529412-.361707.5751634-.839677.5751634-1.3822376 0-.5296424-.2222222-1.0205306-.5751634-1.3693195zm15.124183-14.8558247c.8627451 0 1.6470588.348789 2.2222222.9171857.5751634.5683968.9281046 1.3434833.9281046 2.1960785 0 .8525951-.3529412 1.6405997-.9281046 2.1960784-.5751634.5683968-1.3594771.9171857-2.2222222.9171857-.875817 0-1.6601307-.3487889-2.2352941-.9171857-.5620915-.5554787-.9150327-1.3434833-.9150327-2.1960784 0-.8525952.3529412-1.6276817.9150327-2.1960785.5751634-.5683967 1.3594771-.9171857 2.2352941-.9171857zm1.3856209 1.7439447c-.3529412-.348789-.8496732-.5683968-1.3856209-.5683968-.5490196 0-1.0326797.2196078-1.3986928.5683968-.3529412.3487889-.5751634.839677-.5751634 1.3693195 0 .5425605.2222222 1.0205305.5751634 1.3693194.3660131.348789.8496732.5683968 1.3986928.5683968.5359477 0 1.0326797-.2196078 1.3856209-.5683968.3529412-.3487889.5751634-.8267589.5751634-1.3693194 0-.5296425-.2222222-1.0205306-.5751634-1.3693195zm15.124183 11.3808535c.8627451 0 1.6470588.3487889 2.2222222.9042676.5751634.5683967.9281046 1.3434832.9281046 2.1960784 0 .8655133-.3529412 1.6405998-.9281046 2.1960784v.0129181c-.5751634.5554787-1.3594771.9042676-2.2222222.9042676s-1.6601307-.3487889-2.2222222-.9042676v-.0129181c-.5751634-.5554786-.9281046-1.3305651-.9281046-2.1960784 0-.8525952.3529412-1.6276817.9281046-2.1960784.5620915-.5554787 1.3594771-.9042676 2.2222222-.9042676zm1.3856209 1.7310265c-.3529411-.3487889-.8496732-.5683968-1.3856209-.5683968-.5490196 0-1.0326797.2196079-1.3856209.5683968s-.5751634.8396771-.5751634 1.3693195c0 .5425606.2222222 1.0205306.5751634 1.3822376.3529412.3487889.8366013.5554787 1.3856209.5554787.5359477 0 1.0326798-.2066898 1.3856209-.5554787.3529412-.361707.5751634-.839677.5751634-1.3822376 0-.5296424-.2222222-1.0205306-.5751634-1.3693195zm-17.8954248-27.3217993c.8627451 0 1.6470588.3487889 2.2222222.9042676v.0129181c.5751634.5554787.9281046 1.3305652.9281046 2.1960784 0 .8525952-.3529412 1.6276817-.9281046 2.1960785-.5751634.5554786-1.3594771.9042676-2.2222222.9042676-.875817 0-1.6601307-.348789-2.2352941-.9042676-.5620915-.5683968-.9150327-1.3434833-.9150327-2.1960785 0-.8655132.3529412-1.6405997.9150327-2.1960784v-.0129181c.5751634-.5554787 1.3594771-.9042676 2.2352941-.9042676zm1.3856209 1.7439446c-.3529412-.361707-.8496732-.5683967-1.3856209-.5683967-.5490196 0-1.0326797.2066897-1.3986928.5683967-.3529412.348789-.5751634.826759-.5751634 1.3693195 0 .5296425.2222222 1.0205306.5751634 1.3693195.3660131.348789.8496732.5683968 1.3986928.5683968.5359477 0 1.0326797-.2196078 1.3856209-.5683968.3529412-.3487889.5751634-.839677.5751634-1.3693195 0-.5425605-.2222222-1.0205305-.5751634-1.3693195z" fill-rule="nonzero" transform="translate(0 2)"/></g></svg>

<?xml version="1.0" encoding="UTF-8"?>
<svg width="408px" height="67px" viewBox="0 0 408 67" version="1.1" xmlns="http://www.w3.org/2000/svg" xmlns:xlink="http://www.w3.org/1999/xlink">
    <!-- Generator: Sketch 55.1 (78136) - https://sketchapp.com -->
    <title>logo</title>
    <desc>Created with Sketch.</desc>
    <g id="logo" stroke="none" stroke-width="1" fill="none" fill-rule="evenodd">
        <text id="evilfactorylabs" font-family="Poppins-SemiBold, Poppins SemiBold" font-size="45" font-weight="500" fill="#000000">
            <tspan x="66" y="48">evilfactorylabs</tspan>
        </text>
        <g id="512-transp" transform="translate(0.000000, 6.000000)" fill="#000000" fill-rule="nonzero">
            <path d="M50.4705882,42.2422145 L50.4705882,41.3508651 L50.4705882,32.9153403 L50.4705882,28.4198385 L50.4705882,14.7008074 L39.0457516,20.3460208 L28.5359477,25.5261822 C28.4575163,25.0094579 28.2352941,24.544406 27.8954248,24.1697809 L38.3660131,19.0025375 L48.0784314,14.2099193 L28.4183007,14.2099193 C28.5098039,13.9515571 28.5490196,13.6802768 28.5490196,13.3960784 C28.5490196,13.1506344 28.5228758,12.9181084 28.4575163,12.6985006 L48.3137255,12.6985006 L38.3660131,7.78961938 L25.9869281,1.67935409 L13.620915,7.78961938 L3.66013072,12.6985006 L23.5424837,12.6985006 C23.4771242,12.9181084 23.4379085,13.1506344 23.4379085,13.3960784 C23.4379085,13.6802768 23.4901961,13.9515571 23.5686275,14.2099193 L3.90849673,14.2099193 L13.620915,19.0025375 L24.0915033,24.1697809 C23.7647059,24.544406 23.5294118,25.0094579 23.4640523,25.5391003 L12.9411765,20.3460208 L1.51633987,14.7008074 L1.51633987,28.4198385 L1.51633987,32.9153403 L1.51633987,41.3379469 L1.51633987,42.2422145 L2.26143791,42.6039216 L2.26143791,42.6039216 L2.26143791,42.6039216 L5.20261438,44.0507497 L6.49673203,44.6966551 L13.620915,48.2103806 L25.2287582,53.9460208 L25.2287582,28.2777393 C25.4771242,28.3423299 25.7254902,28.3940023 26,28.3940023 C26.2614379,28.3940023 26.5228758,28.3423299 26.7581699,28.2777393 L26.7581699,53.9460208 L38.3660131,48.2103806 L48.3660131,43.2756632 L48.3660131,43.2756632 L49.7254902,42.6039216 L49.7254902,42.6039216 L49.7254902,42.6039216 L50.4705882,42.2422145 Z M26.7581699,15.7988466 L26.7581699,23.4592849 C26.5228758,23.3817762 26.2614379,23.3430219 26,23.3430219 C25.7254902,23.3430219 25.4771242,23.3817762 25.2287582,23.4592849 L25.2287582,15.7988466 C25.4771242,15.8763552 25.7254902,15.9151096 26,15.9151096 C26.2614379,15.9151096 26.5228758,15.8763552 26.7581699,15.7988466 Z M26.3267974,0.167935409 L39.0457516,6.4461361 L45.0849673,9.43021915 L46.4444444,10.1019608 L51.7124183,12.6985006 L51.7124183,12.6985006 L52,12.8405998 L52,13.9515571 L52,26.0816609 L52,29.7504037 L52,31.571857 L52,41.4929642 L52,43.1594002 L51.7647059,43.2756632 L50.4705882,43.9215686 L48.3660131,44.9550173 L39.0457516,49.5538639 L26.3398693,55.8320646 L26,56 L25.6601307,55.8320646 L12.9411765,49.5538639 L6.49673203,46.3760092 L4.60130719,45.4329873 L4.14379085,45.2133795 L1.51633987,43.9215686 L0,43.1594002 L0,42.2034602 L0,30.0087659 L0,23.3042676 L0,21.3665513 L0,13.9515571 L0,12.8276817 L0.274509804,12.6985006 L5.4379085,10.1407151 L6.79738562,9.46897347 L12.9411765,6.4461361 L25.6470588,0.167935409 L25.9869281,0 L26.3267974,0.167935409 Z M27.9477124,15.0237601 L34.8888889,25.7845444 L41.8431373,36.5453287 C41.3333333,36.6745098 40.8888889,36.9587082 40.5620915,37.3462514 L33.6078431,26.5854671 L26.6666667,15.8246828 C27.1764706,15.6955017 27.620915,15.4113033 27.9477124,15.0237601 Z M40.0653595,39.7361015 L26,39.7361015 L11.9215686,39.7361015 C12,39.4906574 12.0392157,39.2452134 12.0392157,38.9739331 C12.0392157,38.7155709 12,38.4572088 11.9215686,38.2246828 L26,38.2246828 L40.0653595,38.2246828 C39.9869281,38.4572088 39.9477124,38.7155709 39.9477124,38.9739331 C39.9477124,39.2452134 39.9869281,39.4906574 40.0653595,39.7361015 Z M10.1568627,36.5453287 L17.0980392,25.7845444 L24.0392157,15.0237601 C24.379085,15.4113033 24.8235294,15.6955017 25.3202614,15.8246828 L18.379085,26.5854671 L11.4379085,37.3462514 C11.1111111,36.9587082 10.6666667,36.6745098 10.1568627,36.5453287 Z M9.47712418,35.8735871 C10.3529412,35.8735871 11.1372549,36.222376 11.7124183,36.7778547 L11.7124183,36.7778547 C12.2745098,37.3462514 12.627451,38.1213379 12.627451,38.9739331 C12.627451,39.8394464 12.2745098,40.6145329 11.7124183,41.1700115 L11.7124183,41.1829296 C11.1372549,41.7384083 10.3529412,42.0871972 9.47712418,42.0871972 C8.61437908,42.0871972 7.83006536,41.7384083 7.25490196,41.1829296 L7.25490196,41.1700115 C6.67973856,40.6145329 6.32679739,39.8394464 6.32679739,38.9739331 C6.32679739,38.1213379 6.67973856,37.3462514 7.25490196,36.7778547 L7.25490196,36.7778547 C7.83006536,36.222376 8.61437908,35.8735871 9.47712418,35.8735871 Z M10.875817,37.6046136 C10.5228758,37.2558247 10.0261438,37.0362168 9.47712418,37.0362168 C8.94117647,37.0362168 8.44444444,37.2558247 8.09150327,37.6046136 C7.73856209,37.9534025 7.51633987,38.4442907 7.51633987,38.9739331 C7.51633987,39.5164937 7.73856209,39.9944637 8.09150327,40.3561707 C8.44444444,40.7049596 8.94117647,40.9116494 9.47712418,40.9116494 C10.0261438,40.9116494 10.5228758,40.7049596 10.875817,40.3561707 C11.2287582,39.9944637 11.4509804,39.5164937 11.4509804,38.9739331 C11.4509804,38.4442907 11.2287582,37.9534025 10.875817,37.6046136 Z M26,22.7487889 C26.8627451,22.7487889 27.6470588,23.0975779 28.2222222,23.6659746 L28.2222222,23.6659746 C28.7973856,24.2343714 29.1503268,25.0094579 29.1503268,25.8620531 C29.1503268,26.7146482 28.7973856,27.5026528 28.2222222,28.0581315 L28.2222222,28.0581315 C27.6470588,28.6265283 26.8627451,28.9753172 26,28.9753172 C25.124183,28.9753172 24.3398693,28.6265283 23.7647059,28.0581315 L23.7647059,28.0581315 C23.2026144,27.5026528 22.8496732,26.7146482 22.8496732,25.8620531 C22.8496732,25.0094579 23.2026144,24.2343714 23.7647059,23.6659746 L23.7647059,23.6659746 C24.3398693,23.0975779 25.124183,22.7487889 26,22.7487889 Z M27.3856209,24.4927336 C27.0326797,24.1439446 26.5359477,23.9243368 26,23.9243368 C25.4509804,23.9243368 24.9673203,24.1439446 24.6013072,24.4927336 C24.248366,24.8415225 24.0261438,25.3324106 24.0261438,25.8620531 C24.0261438,26.4046136 24.248366,26.8825836 24.6013072,27.2313725 C24.9673203,27.5801615 25.4509804,27.7997693 26,27.7997693 C26.5359477,27.7997693 27.0326797,27.5801615 27.3856209,27.2313725 C27.7385621,26.8825836 27.9607843,26.4046136 27.9607843,25.8620531 C27.9607843,25.3324106 27.7385621,24.8415225 27.3856209,24.4927336 Z M42.5098039,35.8735871 C43.372549,35.8735871 44.1568627,36.222376 44.7320261,36.7778547 L44.7320261,36.7778547 C45.3071895,37.3462514 45.6601307,38.1213379 45.6601307,38.9739331 C45.6601307,39.8394464 45.3071895,40.6145329 44.7320261,41.1700115 L44.7320261,41.1829296 C44.1568627,41.7384083 43.372549,42.0871972 42.5098039,42.0871972 C41.6470588,42.0871972 40.8496732,41.7384083 40.2875817,41.1829296 L40.2875817,41.1700115 C39.7124183,40.6145329 39.3594771,39.8394464 39.3594771,38.9739331 C39.3594771,38.1213379 39.7124183,37.3462514 40.2875817,36.7778547 L40.2875817,36.7778547 C40.8496732,36.222376 41.6470588,35.8735871 42.5098039,35.8735871 Z M43.8954248,37.6046136 C43.5424837,37.2558247 43.0457516,37.0362168 42.5098039,37.0362168 C41.9607843,37.0362168 41.4771242,37.2558247 41.124183,37.6046136 C40.7712418,37.9534025 40.5490196,38.4442907 40.5490196,38.9739331 C40.5490196,39.5164937 40.7712418,39.9944637 41.124183,40.3561707 C41.4771242,40.7049596 41.9607843,40.9116494 42.5098039,40.9116494 C43.0457516,40.9116494 43.5424837,40.7049596 43.8954248,40.3561707 C44.248366,39.9944637 44.4705882,39.5164937 44.4705882,38.9739331 C44.4705882,38.4442907 44.248366,37.9534025 43.8954248,37.6046136 Z M26,10.2828143 C26.8627451,10.2828143 27.6470588,10.6316032 28.2222222,11.1870819 L28.2222222,11.2 C28.7973856,11.7554787 29.1503268,12.5305652 29.1503268,13.3960784 C29.1503268,14.2486736 28.7973856,15.0237601 28.2222222,15.5921569 L28.2222222,15.5921569 C27.6470588,16.1476355 26.8627451,16.4964245 26,16.4964245 C25.124183,16.4964245 24.3398693,16.1476355 23.7647059,15.5921569 L23.7647059,15.5921569 C23.2026144,15.0237601 22.8496732,14.2486736 22.8496732,13.3960784 C22.8496732,12.5305652 23.2026144,11.7554787 23.7647059,11.2 L23.7647059,11.1870819 C24.3398693,10.6316032 25.124183,10.2828143 26,10.2828143 Z M27.3856209,12.0267589 C27.0326797,11.6650519 26.5359477,11.4583622 26,11.4583622 C25.4509804,11.4583622 24.9673203,11.6650519 24.6013072,12.0267589 C24.248366,12.3755479 24.0261438,12.8535179 24.0261438,13.3960784 C24.0261438,13.9257209 24.248366,14.416609 24.6013072,14.7653979 C24.9673203,15.1141869 25.4509804,15.3337947 26,15.3337947 C26.5359477,15.3337947 27.0326797,15.1141869 27.3856209,14.7653979 C27.7385621,14.416609 27.9607843,13.9257209 27.9607843,13.3960784 C27.9607843,12.8535179 27.7385621,12.3755479 27.3856209,12.0267589 Z" id="Shape"></path>
        </g>
    </g>
</svg>
